Newaita-dark/actions/22/dialog-messages.svg

<svg height="22" viewBox="0 0 22 22" width="22" xmlns="http://www.w3.org/2000/svg"><path d="m10.914062 1.996094c-4.992187 0-9.089843 3.839844-9.089843 8.636718 0 1.351563.328125 2.640626.910156 3.78125l-.894531 4.691407c-.0625.328125.058594.660156.320312.871093.257813.210938.613282.261719.921875.132813l3.945313-1.664063c1.179687.53125 2.5.824219 3.886718.824219 4.996094 0 9.09375-3.839843 9.09375-8.636719 0-4.796874-4.097656-8.636718-9.09375-8.636718zm0 1.808594c4.078126 0 7.28125 3.058593 7.28125 6.828124 0 3.769532-3.203124 6.824219-7.28125 6.824219-1.207031 0-2.335937-.269531-3.332031-.75-.261719-.179687-.59375-.214843-.882812-.085937l-2.765625 1.164062.59375-3.117187c.011718-.054688.015625-.105469.019531-.160157.066406-.234374.035156-.488281-.085937-.703124-.53125-.949219-.828126-2.023438-.828126-3.171876 0-3.769531 3.207032-6.828124 7.28125-6.828124zm0 0" fill="#e0e0e0"/></svg>

<?xml version="1.0" encoding="UTF-8"?>
<svg xmlns="http://www.w3.org/2000/svg" xmlns:xlink="http://www.w3.org/1999/xlink" width="22px" height="22px" viewBox="0 0 22 22" version="1.1">
<g id="surface1">
<path style=" stroke:none;fill-rule:nonzero;fill:rgb(87.843138%,87.843138%,87.843138%);fill-opacity:1;" d="M 10.914062 1.996094 C 5.921875 1.996094 1.824219 5.835938 1.824219 10.632812 C 1.824219 11.984375 2.152344 13.273438 2.734375 14.414062 L 1.839844 19.105469 C 1.777344 19.433594 1.898438 19.765625 2.160156 19.976562 C 2.417969 20.1875 2.773438 20.238281 3.082031 20.109375 L 7.027344 18.445312 C 8.207031 18.976562 9.527344 19.269531 10.914062 19.269531 C 15.910156 19.269531 20.007812 15.429688 20.007812 10.632812 C 20.007812 5.835938 15.910156 1.996094 10.914062 1.996094 Z M 10.914062 3.804688 C 14.992188 3.804688 18.195312 6.863281 18.195312 10.632812 C 18.195312 14.402344 14.992188 17.457031 10.914062 17.457031 C 9.707031 17.457031 8.578125 17.1875 7.582031 16.707031 C 7.320312 16.527344 6.988281 16.492188 6.699219 16.621094 L 3.933594 17.785156 L 4.527344 14.667969 C 4.539062 14.613281 4.542969 14.5625 4.546875 14.507812 C 4.613281 14.273438 4.582031 14.019531 4.460938 13.804688 C 3.929688 12.855469 3.632812 11.78125 3.632812 10.632812 C 3.632812 6.863281 6.839844 3.804688 10.914062 3.804688 Z M 10.914062 3.804688 "/>
</g>
</svg>
